X:6872
T:The Hair'm Scare'm's
R:reel
C:Otis Tomas
D:The Lighthouse, Cranford Publications
B:The Lighthouse Collection, ISBN 0-9691181-5-5
N:Contacts ...
N:..... Otis Tomas Stringed Instruments 1-902-929-2766
N:..... <http://www.capebretonet.com/Music/Otis_Tomas>
N:..... Otis <otis@cranfordpub.com>
N:..... Cranford Publications <http://www.cranfordpub.com>
Q:324
O:England
L:1/8
M:C|
K:D
A2AB AFF2|GFGBA2de|fdfa gfec|dBAFG2FG|
A2AB AFF2|GFGBA2de|fagf ecAF|[1E2D2D2dB:|[2E2D2D2||
|:dc|B2Bc BAFE|DB,DEF2ED|B,DEF GBdg|[1f2e2e2dc|
B2Bc BAFE|DB,DEF2ED|EFGB AFdF|E2D2D2:|
|[2f2e2egfe|defg afec|dBAFG2FE|FGAB AFdF|E2D2D2z2|]


